;Generated with Cura_SteamEngine 15.01
; Default start code
G28 ; Home extruder
G1 Z15 F4800
M107 ; Turn off fan
G90 ; Absolute positioning
M82 ; Extruder in absolute mode
; Activate all used extruder
M104 T0 S200
G92 E0 ; Reset extruder position
; Wait for all used extruders to reach temperature
M109 T0 S200
;Layer count: 250
;LAYER:0
M107
G0 F9000 X-26.349 Y-5.299 Z0.300
;TYPE:SKIRT
G1 F1800 X-28.288 Y-5.299 E0.09674
G1 X-29.258 Y-5.384 E0.14532
G1 X-29.581 Y-5.413 E0.16150
G1 X-30.902 Y-5.767 E0.22973
G1 X-31.959 Y-6.249 E0.28768
G1 X-32.265 Y-6.394 E0.30458
G1 X-33.380 Y-7.175 E0.37249
G1 X-34.391 Y-8.168 E0.44319
G1 X-35.223 Y-9.334 E0.51466
G1 X-35.719 Y-10.374 E0.57214
G1 X-35.864 Y-10.679 E0.58899
G1 X-36.153 Y-11.760 E0.64481
G1 X-36.237 Y-12.059 E0.66031
G1 X-36.333 Y-13.182 E0.71654
G1 X-36.362 Y-13.492 E0.73207
G1 X-36.266 Y-14.606 E0.78786
G1 X-36.236 Y-14.931 E0.80414
G1 X-35.882 Y-16.251 E0.87232
G1 X-35.401 Y-17.309 E0.93031
G1 X-35.255 Y-17.617 E0.94731
G1 X-34.473 Y-18.731 E1.01521
G1 X-33.481 Y-19.741 E1.08584
G1 X-32.315 Y-20.573 E1.15731
G1 X-31.275 Y-21.069 E1.21479
G1 X-30.970 Y-21.214 E1.23164
G1 X-29.889 Y-21.503 E1.28747
G1 X-29.592 Y-21.586 E1.30285
G1 X-28.334 Y-21.696 E1.36585
G1 X-26.349 Y-21.698 E1.46488
G1 X-26.349 Y-26.700 E1.71443
G1 X26.350 Y-26.700 E4.34360
G1 X26.350 Y-21.700 E4.59305
G1 X28.290 Y-21.700 E4.68984
G1 X29.258 Y-21.615 E4.73832
G1 X29.581 Y-21.586 E4.75450
G1 X30.901 Y-21.232 E4.82268
G1 X31.959 Y-20.751 E4.88066
G1 X32.267 Y-20.605 E4.89767
G1 X33.381 Y-19.823 E4.96557
G1 X34.390 Y-18.831 E5.03616
G1 X35.223 Y-17.666 E5.10761
G1 X35.719 Y-16.624 E5.16519
G1 X35.864 Y-16.320 E5.18199
G1 X36.144 Y-15.271 E5.23616
G1 X36.237 Y-14.940 E5.25331
G1 X36.332 Y-13.834 E5.30869
G1 X36.361 Y-13.508 E5.32502
G1 X36.266 Y-12.393 E5.38085
G1 X36.236 Y-12.068 E5.39714
G1 X35.882 Y-10.747 E5.46537
G1 X35.400 Y-9.690 E5.52332
G1 X35.255 Y-9.384 E5.54022
G1 X34.474 Y-8.269 E5.60813
G1 X33.481 Y-7.259 E5.67880
G1 X32.316 Y-6.426 E5.75025
G1 X31.274 Y-5.930 E5.80782
G1 X30.970 Y-5.785 E5.82463
G1 X29.889 Y-5.496 E5.88045
G1 X29.592 Y-5.413 E5.89584
G1 X28.335 Y-5.303 E5.95879
G1 X26.350 Y-5.301 E6.05782
G1 X26.350 Y5.300 E6.58671
G1 X28.288 Y5.300 E6.68339
G1 X29.256 Y5.383 E6.73187
G1 X29.581 Y5.413 E6.74815
G1 X30.901 Y5.767 E6.81633
G1 X31.959 Y6.248 E6.87431
G1 X32.267 Y6.394 E6.89132
G1 X33.381 Y7.176 E6.95922
G1 X34.391 Y8.168 E7.02985
G1 X35.223 Y9.334 E7.10131
G1 X35.719 Y10.374 E7.15880
G1 X35.864 Y10.679 E7.17565
G1 X36.144 Y11.728 E7.22981
G1 X36.237 Y12.059 E7.24697
G1 X36.332 Y13.166 E7.30240
G1 X36.362 Y13.492 E7.31873
G1 X36.266 Y14.606 E7.37452
G1 X36.236 Y14.931 E7.39080
G1 X35.882 Y16.251 E7.45898
G1 X35.401 Y17.309 E7.51696
G1 X35.255 Y17.617 E7.53397
G1 X34.473 Y18.731 E7.60187
G1 X33.481 Y19.740 E7.67247
G1 X32.316 Y20.573 E7.74392
G1 X31.274 Y21.069 E7.80149
G1 X30.970 Y21.214 E7.81830
G1 X29.889 Y21.503 E7.87412
G1 X29.592 Y21.586 E7.88951
G1 X28.335 Y21.696 E7.95246
G1 X26.350 Y21.698 E8.05149
G1 X26.350 Y26.700 E8.30104
G1 X-26.349 Y26.700 E10.93020
G1 X-26.349 Y21.700 E11.17966
G1 X-28.288 Y21.700 E11.27639
G1 X-29.258 Y21.615 E11.32497
G1 X-29.581 Y21.586 E11.34115
G1 X-30.902 Y21.232 E11.40938
G1 X-31.959 Y20.750 E11.46734
G1 X-32.265 Y20.605 E11.48423
G1 X-33.380 Y19.824 E11.55215
G1 X-34.390 Y18.831 E11.62281
G1 X-35.223 Y17.666 E11.69426
G1 X-35.719 Y16.624 E11.75184
G1 X-35.864 Y16.320 E11.76864
G1 X-36.153 Y15.239 E11.82447
G1 X-36.237 Y14.940 E11.83996
G1 X-36.333 Y13.819 E11.89609
G1 X-36.361 Y13.508 E11.91167
G1 X-36.266 Y12.393 E11.96750
G1 X-36.236 Y12.068 E11.98379
G1 X-35.882 Y10.747 E12.05202
G1 X-35.400 Y9.690 E12.10997
G1 X-35.255 Y9.384 E12.12687
G1 X-34.474 Y8.269 E12.19478
G1 X-33.481 Y7.258 E12.26548
G1 X-32.315 Y6.426 E12.33695
G1 X-31.275 Y5.930 E12.39443
G1 X-30.970 Y5.785 E12.41128
G1 X-29.889 Y5.496 E12.46710
G1 X-29.590 Y5.412 E12.48260
G1 X-28.332 Y5.304 E12.54559
G1 X-26.349 Y5.302 E12.64452
G1 X-26.349 Y-5.299 E13.17341
G1 F2400 E9.17341
G0 F9000 X-28.120 Y-9.099
;TYPE:WALL-INNER
G1 F2400 E13.17341
G1 F1800 X-28.912 Y-9.168 E13.21307
G1 X-29.615 Y-9.356 E13.24938
G1 X-30.351 Y-9.692 E13.28974
G1 X-30.942 Y-10.106 E13.32574
G1 X-31.490 Y-10.645 E13.36409
G1 X-31.935 Y-11.268 E13.40229
G1 X-32.282 Y-11.997 E13.44257
G1 X-32.481 Y-12.738 E13.48085
G1 X-32.546 Y-13.502 E13.51910
G1 X-32.481 Y-14.262 E13.55715
G1 X-32.293 Y-14.965 E13.59346
G1 X-31.959 Y-15.698 E13.63365
G1 X-31.541 Y-16.294 E13.66997
G1 X-31.004 Y-16.840 E13.70817
G1 X-30.381 Y-17.285 E13.74637
G1 X-29.652 Y-17.632 E13.78665
G1 X-28.911 Y-17.831 E13.82493
G1 X-28.164 Y-17.896 E13.86234
G1 X-22.549 Y-17.901 E14.14247
G1 X-22.549 Y-22.900 E14.39187
G1 X22.550 Y-22.900 E16.64187
G1 X22.550 Y-17.900 E16.89132
G1 X28.121 Y-17.900 E17.16926
G1 X28.912 Y-17.831 E17.20887
G1 X29.615 Y-17.643 E17.24518
G1 X30.348 Y-17.309 E17.28536
G1 X30.944 Y-16.891 E17.32168
G1 X31.490 Y-16.354 E17.35989
G1 X31.935 Y-15.732 E17.39805
G1 X32.282 Y-15.002 E17.43837
G1 X32.481 Y-14.262 E17.47660
G1 X32.546 Y-13.498 E17.51485
G1 X32.481 Y-12.737 E17.55296
G1 X32.293 Y-12.034 E17.58926
G1 X31.958 Y-11.299 E17.62956
G1 X31.543 Y-10.707 E17.66563
G1 X31.004 Y-10.159 E17.70398
G1 X30.382 Y-9.714 E17.74214
G1 X29.652 Y-9.367 E17.78246
G1 X28.911 Y-9.168 E17.82074
G1 X28.165 Y-9.103 E17.85810
G1 X22.550 Y-9.098 E18.13823
G1 X22.550 Y9.100 E19.04613
G1 X28.121 Y9.100 E19.32407
G1 X28.912 Y9.168 E19.36368
G1 X29.615 Y9.356 E19.39999
G1 X30.348 Y9.690 E19.44017
G1 X30.944 Y10.108 E19.47649
G1 X31.490 Y10.645 E19.51470
G1 X31.935 Y11.268 E19.55290
G1 X32.282 Y11.997 E19.59318
G1 X32.481 Y12.738 E19.63145
G1 X32.546 Y13.502 E19.66971
G1 X32.481 Y14.262 E19.70776
G1 X32.293 Y14.965 E19.74407
G1 X31.959 Y15.698 E19.78426
G1 X31.541 Y16.294 E19.82057
G1 X31.004 Y16.840 E19.85878
G1 X30.382 Y17.285 E19.89694
G1 X29.652 Y17.632 E19.93726
G1 X28.911 Y17.831 E19.97554
G1 X28.165 Y17.896 E20.01290
G1 X22.550 Y17.901 E20.29303
G1 X22.550 Y22.900 E20.54243
G1 X-22.549 Y22.900 E22.79243
G1 X-22.549 Y17.900 E23.04188
G1 X-28.120 Y17.900 E23.31982
G1 X-28.912 Y17.831 E23.35948
G1 X-29.615 Y17.643 E23.39579
G1 X-30.351 Y17.307 E23.43615
G1 X-30.942 Y16.893 E23.47215
G1 X-31.490 Y16.354 E23.51050
G1 X-31.935 Y15.732 E23.54866
G1 X-32.282 Y15.002 E23.58898
G1 X-32.481 Y14.262 E23.62721
G1 X-32.546 Y13.498 E23.66547
G1 X-32.481 Y12.737 E23.70357
G1 X-32.293 Y12.034 E23.73988
G1 X-31.958 Y11.299 E23.78018
G1 X-31.543 Y10.707 E23.81624
G1 X-31.004 Y10.159 E23.85459
G1 X-30.381 Y9.714 E23.89279
G1 X-29.652 Y9.367 E23.93307
G1 X-28.911 Y9.168 E23.97135
G1 X-28.165 Y9.104 E24.00870
G1 X-22.549 Y9.099 E24.28889
G1 X-22.549 Y-9.099 E25.19679
G1 X-28.120 Y-9.099 E25.47473
G0 F9000 X-28.147 Y-10.896
G1 F1800 X-27.676 Y-10.942 E25.49834
G1 X-27.242 Y-11.062 E25.52080
G1 X-26.846 Y-11.246 E25.54259
G1 X-26.463 Y-11.520 E25.56608
G1 X-26.154 Y-11.829 E25.58788
G1 X-25.886 Y-12.218 E25.61145
G1 X-25.699 Y-12.628 E25.63393
G1 X-25.587 Y-13.047 E25.65557
G1 X-25.546 Y-13.502 E25.67836
G1 X-25.592 Y-13.973 E25.70197
G1 X-25.712 Y-14.407 E25.72444
G1 X-25.896 Y-14.803 E25.74622
G1 X-26.170 Y-15.186 E25.76972
G1 X-26.478 Y-15.495 E25.79148
G1 X-26.867 Y-15.763 E25.81505
G1 X-27.278 Y-15.950 E25.83758
G1 X-27.698 Y-16.062 E25.85926
G1 X-28.151 Y-16.101 E25.88195
G1 X-28.622 Y-16.057 E25.90555
G1 X-29.057 Y-15.937 E25.92806
G1 X-29.452 Y-15.753 E25.94980
G1 X-29.836 Y-15.480 E25.97331
G1 X-30.145 Y-15.171 E25.99511
G1 X-30.413 Y-14.782 E26.01867
G1 X-30.600 Y-14.371 E26.04120
G1 X-30.712 Y-13.951 E26.06289
G1 X-30.751 Y-13.498 E26.08557
G1 X-30.707 Y-13.027 E26.10917
G1 X-30.587 Y-12.592 E26.13169
G1 X-30.403 Y-12.197 E26.15343
G1 X-30.130 Y-11.813 E26.17693
G1 X-29.820 Y-11.504 E26.19877
G1 X-29.431 Y-11.236 E26.22234
G1 X-29.021 Y-11.049 E26.24482
G1 X-28.602 Y-10.937 E26.26646
G1 X-28.147 Y-10.896 E26.28925
G0 F9000 X-26.464 Y-11.521
G0 X-25.589 Y-13.048
G0 X-21.749 Y-19.100
G1 F1800 X-21.749 Y19.100 E28.19505
G1 X21.750 Y19.100 E30.36523
G1 X21.750 Y-19.100 E32.27103
G1 X-21.749 Y-19.100 E34.44121
G0 F9000 X-22.608 Y9.041
G0 X-27.698 Y10.937
G1 F1800 X-28.151 Y10.898 E34.46389
G1 X-28.622 Y10.942 E34.48749
G1 X-29.057 Y11.062 E34.51000
G1 X-29.452 Y11.246 E34.53174
G1 X-29.836 Y11.519 E34.55525
G1 X-30.145 Y11.829 E34.57709
G1 X-30.413 Y12.218 E34.60065
G1 X-30.600 Y12.628 E34.62314
G1 X-30.712 Y13.048 E34.64482
G1 X-30.751 Y13.502 E34.66756
G1 X-30.707 Y13.972 E34.69111
G1 X-30.587 Y14.407 E34.71362
G1 X-30.403 Y14.803 E34.73540
G1 X-30.129 Y15.186 E34.75890
G1 X-29.820 Y15.495 E34.78070
G1 X-29.431 Y15.763 E34.80427
G1 X-29.021 Y15.950 E34.82675
G1 X-28.602 Y16.062 E34.84839
G1 X-28.147 Y16.103 E34.87118
G1 X-27.676 Y16.057 E34.89479
G1 X-27.242 Y15.937 E34.91725
G1 X-26.846 Y15.753 E34.93904
G1 X-26.463 Y15.479 E34.96253
G1 X-26.154 Y15.171 E34.98430
G1 X-25.886 Y14.782 E35.00787
G1 X-25.699 Y14.371 E35.03040
G1 X-25.587 Y13.952 E35.05203
G1 X-25.546 Y13.498 E35.07478
G1 X-25.592 Y13.026 E35.09844
G1 X-25.712 Y12.592 E35.12090
G1 X-25.896 Y12.197 E35.14264
G1 X-26.169 Y11.813 E35.16615
G1 X-26.478 Y11.504 E35.18795
G1 X-26.867 Y11.236 E35.21151
G1 X-27.278 Y11.049 E35.23404
G1 X-27.698 Y10.937 E35.25573
G0 F9000 X-21.748 Y11.223
G0 X-21.690 Y-19.041
G0 X21.691 Y-19.041
G0 X21.749 Y13.318
G0 X25.548 Y13.502
G1 F1800 X25.592 Y13.972 E35.27928
G1 X25.712 Y14.407 E35.30179
G1 X25.896 Y14.803 E35.32358
G1 X26.170 Y15.186 E35.34707
G1 X26.479 Y15.495 E35.36887
G1 X26.868 Y15.763 E35.39244
G1 X27.278 Y15.950 E35.41492
G1 X27.697 Y16.062 E35.43656
G1 X28.152 Y16.103 E35.45935
G1 X28.623 Y16.057 E35.48296
G1 X29.057 Y15.937 E35.50543
G1 X29.452 Y15.753 E35.52717
G1 X29.836 Y15.480 E35.55067
G1 X30.145 Y15.171 E35.57247
G1 X30.413 Y14.782 E35.59604
G1 X30.600 Y14.371 E35.61857
G1 X30.712 Y13.952 E35.64021
G1 X30.753 Y13.498 E35.66295
G1 X30.707 Y13.026 E35.68661
G1 X30.587 Y12.592 E35.70907
G1 X30.403 Y12.197 E35.73081
G1 X30.130 Y11.813 E35.75432
G1 X29.820 Y11.504 E35.77616
G1 X29.431 Y11.236 E35.79972
G1 X29.021 Y11.049 E35.82221
G1 X28.601 Y10.937 E35.84389
G1 X28.148 Y10.898 E35.86658
G1 X27.677 Y10.942 E35.89018
G1 X27.242 Y11.062 E35.91269
G1 X26.847 Y11.246 E35.93443
G1 X26.463 Y11.519 E35.95794
G1 X26.154 Y11.829 E35.97977
G1 X25.886 Y12.218 E36.00334
G1 X25.699 Y12.628 E36.02582
G1 X25.587 Y13.048 E36.04751
G1 X25.548 Y13.502 E36.07024
G0 F9000 X22.609 Y9.041
G0 X22.609 Y-9.040
G0 X27.697 Y-10.937
G1 F1800 X28.152 Y-10.896 E36.09303
G1 X28.623 Y-10.942 E36.11664
G1 X29.057 Y-11.062 E36.13911
G1 X29.452 Y-11.246 E36.16085
G1 X29.836 Y-11.519 E36.18435
G1 X30.145 Y-11.829 E36.20619
G1 X30.413 Y-12.218 E36.22976
G1 X30.600 Y-12.628 E36.25224
G1 X30.712 Y-13.047 E36.27388
G1 X30.753 Y-13.502 E36.29667
G1 X30.707 Y-13.973 E36.32028
G1 X30.587 Y-14.407 E36.34274
G1 X30.403 Y-14.803 E36.36453
G1 X30.129 Y-15.186 E36.38802
G1 X29.820 Y-15.495 E36.40983
G1 X29.431 Y-15.763 E36.43339
G1 X29.021 Y-15.950 E36.45588
G1 X28.601 Y-16.062 E36.47756
G1 X28.148 Y-16.101 E36.50024
G1 X27.677 Y-16.057 E36.52385
G1 X27.242 Y-15.937 E36.54636
G1 X26.847 Y-15.753 E36.56810
G1 X26.463 Y-15.480 E36.59160
G1 X26.154 Y-15.171 E36.61341
G1 X25.886 Y-14.782 E36.63697
G1 X25.699 Y-14.371 E36.65950
G1 X25.587 Y-13.951 E36.68119
G1 X25.548 Y-13.498 E36.70387
G1 X25.592 Y-13.027 E36.72747
G1 X25.712 Y-12.592 E36.74998
G1 X25.896 Y-12.197 E36.77172
G1 X26.169 Y-11.813 E36.79523
G1 X26.479 Y-11.504 E36.81707
G1 X26.868 Y-11.236 E36.84063
G1 X27.278 Y-11.049 E36.86312
G1 X27.697 Y-10.937 E36.88475
G0 F9000 X27.767 Y-11.332
;TYPE:WALL-OUTER
G1 F1800 X28.151 Y-11.298 E36.90399
G1 X28.550 Y-11.337 E36.92399
G1 X28.918 Y-11.439 E36.94304
G1 X29.250 Y-11.593 E36.96130
G1 X29.577 Y-11.826 E36.98133
G1 X29.836 Y-12.086 E36.99964
G1 X30.064 Y-12.416 E37.01965
G1 X30.222 Y-12.763 E37.03867
G1 X30.317 Y-13.117 E37.05696
G1 X30.351 Y-13.501 E37.07619
G1 X30.312 Y-13.900 E37.09619
G1 X30.210 Y-14.268 E37.11524
G1 X30.056 Y-14.601 E37.13355
G1 X29.823 Y-14.927 E37.15354
G1 X29.563 Y-15.186 E37.17185
G1 X29.233 Y-15.414 E37.19186
G1 X28.886 Y-15.572 E37.21088
G1 X28.532 Y-15.667 E37.22917
G1 X28.149 Y-15.700 E37.24835
G1 X27.750 Y-15.662 E37.26834
G1 X27.381 Y-15.560 E37.28744
G1 X27.049 Y-15.406 E37.30570
G1 X26.722 Y-15.173 E37.32573
G1 X26.463 Y-14.914 E37.34401
G1 X26.235 Y-14.584 E37.36402
G1 X26.077 Y-14.236 E37.38309
G1 X25.982 Y-13.882 E37.40137
G1 X25.949 Y-13.499 E37.42055
G1 X25.987 Y-13.100 E37.44055
G1 X26.089 Y-12.731 E37.45965
G1 X26.243 Y-12.399 E37.47791
G1 X26.476 Y-12.072 E37.49794
G1 X26.736 Y-11.813 E37.51625
G1 X27.066 Y-11.585 E37.53626
G1 X27.413 Y-11.427 E37.55528
G1 X27.767 Y-11.332 E37.57357
G0 F9000 X27.691 Y-11.044
G0 X28.172 Y-9.003
G0 X28.188 Y-8.703
G1 F1800 X22.950 Y-8.699 E37.83489
G1 X22.950 Y8.700 E38.70293
G1 X28.145 Y8.700 E38.96211
G1 X28.982 Y8.772 E39.00402
G1 X29.748 Y8.978 E39.04360
G1 X30.524 Y9.331 E39.08613
G1 X31.199 Y9.799 E39.12711
G1 X31.797 Y10.386 E39.16891
G1 X32.281 Y11.064 E39.21047
G1 X32.660 Y11.861 E39.25450
G1 X32.869 Y12.641 E39.29479
G1 X32.877 Y12.670 E39.29629
G1 X32.949 Y13.500 E39.33785
G1 X32.877 Y14.332 E39.37952
G1 X32.671 Y15.098 E39.41909
G1 X32.318 Y15.874 E39.46162
G1 X31.850 Y16.549 E39.50260
G1 X31.263 Y17.147 E39.54441
G1 X30.586 Y17.631 E39.58593
G1 X29.788 Y18.010 E39.63000
G1 X29.008 Y18.219 E39.67029
G1 X28.979 Y18.227 E39.67179
G1 X28.188 Y18.296 E39.71140
G1 X22.950 Y18.300 E39.97273
G1 X22.950 Y23.300 E40.22218
G1 X-22.949 Y23.300 E42.51209
G1 X-22.949 Y18.300 E42.76154
G1 X-28.143 Y18.300 E43.02067
G1 X-28.982 Y18.227 E43.06269
G1 X-29.748 Y18.021 E43.10226
G1 X-30.523 Y17.668 E43.14475
G1 X-31.199 Y17.200 E43.18577
G1 X-31.797 Y16.613 E43.22757
G1 X-32.281 Y15.936 E43.26909
G1 X-32.660 Y15.138 E43.31317
G1 X-32.869 Y14.358 E43.35345
G1 X-32.877 Y14.329 E43.35495
G1 X-32.949 Y13.500 E43.39647
G1 X-32.877 Y12.667 E43.43818
G1 X-32.671 Y11.901 E43.47776
G1 X-32.318 Y11.126 E43.52024
G1 X-31.850 Y10.450 E43.56126
G1 X-31.263 Y9.852 E43.60307
G1 X-30.585 Y9.368 E43.64463
G1 X-29.788 Y8.989 E43.68866
G1 X-29.008 Y8.780 E43.72894
G1 X-28.979 Y8.772 E43.73044
G1 X-28.188 Y8.704 E43.77005
G1 X-22.949 Y8.700 E44.03143
G1 X-22.949 Y-8.699 E44.89947
G1 X-28.143 Y-8.699 E45.15860
G1 X-28.982 Y-8.772 E45.20061
G1 X-29.748 Y-8.978 E45.24019
G1 X-30.523 Y-9.331 E45.28267
G1 X-31.199 Y-9.799 E45.32369
G1 X-31.797 Y-10.386 E45.36550
G1 X-32.281 Y-11.064 E45.40706
G1 X-32.660 Y-11.861 E45.45109
G1 X-32.869 Y-12.641 E45.49138
G1 X-32.877 Y-12.670 E45.49288
G1 X-32.949 Y-13.500 E45.53444
G1 X-32.877 Y-14.332 E45.57611
G1 X-32.671 Y-15.098 E45.61568
G1 X-32.318 Y-15.874 E45.65821
G1 X-31.850 Y-16.549 E45.69919
G1 X-31.263 Y-17.147 E45.74100
G1 X-30.585 Y-17.631 E45.78256
G1 X-29.788 Y-18.010 E45.82658
G1 X-29.008 Y-18.219 E45.86687
G1 X-28.979 Y-18.227 E45.86837
G1 X-28.187 Y-18.296 E45.90804
G1 X-22.949 Y-18.300 E46.16936
G1 X-22.949 Y-23.300 E46.41881
G1 X22.950 Y-23.300 E48.70872
G1 X22.950 Y-18.300 E48.95817
G1 X28.144 Y-18.300 E49.21730
G1 X28.982 Y-18.227 E49.25927
G1 X29.748 Y-18.021 E49.29884
G1 X30.524 Y-17.668 E49.34137
G1 X31.199 Y-17.200 E49.38235
G1 X31.797 Y-16.613 E49.42416
G1 X32.281 Y-15.936 E49.46568
G1 X32.660 Y-15.138 E49.50975
G1 X32.869 Y-14.358 E49.55004
G1 X32.877 Y-14.329 E49.55154
G1 X32.949 Y-13.500 E49.59306
G1 X32.877 Y-12.667 E49.63477
G1 X32.671 Y-11.901 E49.67434
G1 X32.318 Y-11.126 E49.71683
G1 X31.850 Y-10.450 E49.75785
G1 X31.263 Y-9.852 E49.79965
G1 X30.586 Y-9.368 E49.84117
G1 X29.788 Y-8.989 E49.88525
G1 X29.008 Y-8.780 E49.92554
