;Generated with Cura_SteamEngine 15.01
; Default start code
G28 ; Home extruder
G1 Z15 F4800
M107 ; Turn off fan
G90 ; Absolute positioning
M82 ; Extruder in absolute mode
; Activate all used extruder
M104 T0 S200
G92 E0 ; Reset extruder position
; Wait for all used extruders to reach temperature
M109 T0 S200
;Layer count: 320
;LAYER:0
M107
G0 F9000 X8.938 Y-3.259 Z0.300
;TYPE:SKIRT
G1 F1800 X9.369 Y-1.659 E0.08267
G1 X9.514 Y-0.008 E0.16536
G1 X9.372 Y1.645 E0.24813
G1 X8.943 Y3.247 E0.33087
G1 X8.244 Y4.753 E0.41370
G1 X7.291 Y6.112 E0.49651
G1 X6.122 Y7.283 E0.57906
G1 X4.762 Y8.238 E0.66197
G1 X3.259 Y8.938 E0.74469
G1 X1.659 Y9.369 E0.82736
G1 X0.008 Y9.514 E0.91004
G1 X-1.645 Y9.372 E0.99282
G1 X-3.247 Y8.943 E1.07556
G1 X-4.753 Y8.244 E1.15839
G1 X-6.112 Y7.291 E1.24120
G1 X-7.283 Y6.122 E1.32375
G1 X-8.238 Y4.762 E1.40666
G1 X-8.938 Y3.259 E1.48938
G1 X-9.369 Y1.659 E1.57205
G1 X-9.514 Y0.008 E1.65473
G1 X-9.372 Y-1.645 E1.73750
G1 X-8.943 Y-3.247 E1.82024
G1 X-8.244 Y-4.753 E1.90308
G1 X-7.291 Y-6.112 E1.98589
G1 X-6.122 Y-7.283 E2.06844
G1 X-4.762 Y-8.238 E2.15135
G1 X-3.259 Y-8.938 E2.23406
G1 X-1.659 Y-9.369 E2.31673
G1 X-0.008 Y-9.514 E2.39942
G1 X1.645 Y-9.372 E2.48219
G1 X3.247 Y-8.943 E2.56493
G1 X4.753 Y-8.244 E2.64777
G1 X6.112 Y-7.291 E2.73058
G1 X7.283 Y-6.122 E2.81313
G1 X8.238 Y-4.762 E2.89603
G1 X8.938 Y-3.259 E2.97875
G0 F9000 X8.561 Y-3.122
G1 F1800 X8.973 Y-1.589 E3.05795
G1 X9.113 Y-0.008 E3.13713
G1 X8.977 Y1.575 E3.21640
G1 X8.566 Y3.110 E3.29568
G1 X7.896 Y4.552 E3.37501
G1 X6.984 Y5.854 E3.45431
G1 X5.863 Y6.976 E3.53344
G1 X4.561 Y7.890 E3.61281
G1 X3.122 Y8.561 E3.69202
G1 X1.589 Y8.973 E3.77122
G1 X0.008 Y9.113 E3.85040
G1 X-1.575 Y8.977 E3.92967
G1 X-3.110 Y8.566 E4.00895
G1 X-4.552 Y7.896 E4.08828
G1 X-5.854 Y6.984 E4.16758
G1 X-6.976 Y5.863 E4.24671
G1 X-7.890 Y4.561 E4.32608
G1 X-8.561 Y3.122 E4.40529
G1 X-8.973 Y1.589 E4.48448
G1 X-9.113 Y0.008 E4.56367
G1 X-8.977 Y-1.575 E4.64294
G1 X-8.566 Y-3.110 E4.72222
G1 X-7.896 Y-4.552 E4.80154
G1 X-6.984 Y-5.854 E4.88085
G1 X-5.863 Y-6.976 E4.95998
G1 X-4.561 Y-7.890 E5.03934
G1 X-3.122 Y-8.561 E5.11856
G1 X-1.589 Y-8.973 E5.19775
G1 X-0.008 Y-9.113 E5.27694
G1 X1.575 Y-8.977 E5.35620
G1 X3.110 Y-8.566 E5.43548
G1 X4.552 Y-7.896 E5.51481
G1 X5.854 Y-6.984 E5.59412
G1 X6.976 Y-5.863 E5.67325
G1 X7.890 Y-4.561 E5.75261
G1 X8.561 Y-3.122 E5.83182
G0 F9000 X8.184 Y-2.984
G1 F1800 X8.578 Y-1.519 E5.90751
G1 X8.711 Y-0.007 E5.98324
G1 X8.581 Y1.506 E6.05900
G1 X8.188 Y2.973 E6.13477
G1 X7.548 Y4.351 E6.21057
G1 X6.676 Y5.596 E6.28640
G1 X5.605 Y6.669 E6.36204
G1 X4.361 Y7.542 E6.43786
G1 X2.984 Y8.184 E6.51366
G1 X1.519 Y8.578 E6.58934
G1 X0.007 Y8.711 E6.66507
G1 X-1.506 Y8.581 E6.74083
G1 X-2.973 Y8.188 E6.81660
G1 X-4.351 Y7.548 E6.89240
G1 X-5.596 Y6.676 E6.96824
G1 X-6.669 Y5.605 E7.04387
G1 X-7.542 Y4.361 E7.11969
G1 X-8.184 Y2.984 E7.19549
G1 X-8.578 Y1.519 E7.27118
G1 X-8.711 Y0.007 E7.34690
G1 X-8.581 Y-1.506 E7.42266
G1 X-8.188 Y-2.973 E7.49843
G1 X-7.548 Y-4.351 E7.57424
G1 X-6.676 Y-5.596 E7.65007
G1 X-5.605 Y-6.669 E7.72570
G1 X-4.361 Y-7.542 E7.80153
G1 X-2.984 Y-8.184 E7.87732
G1 X-1.519 Y-8.578 E7.95301
G1 X-0.007 Y-8.711 E8.02874
G1 X1.506 Y-8.581 E8.10450
G1 X2.973 Y-8.188 E8.18027
G1 X4.351 Y-7.548 E8.25607
G1 X5.596 Y-6.676 E8.33190
G1 X6.669 Y-5.605 E8.40754
G1 X7.542 Y-4.361 E8.48336
G1 X8.184 Y-2.984 E8.55916
G1 F2400 E4.55916
G0 F9000 X4.601 Y-1.676
;TYPE:WALL-INNER
G1 F2400 E8.55916
G1 F1800 X4.821 Y-0.858 E8.60142
G1 X4.896 Y-0.002 E8.64429
G1 X4.824 Y0.846 E8.68675
G1 X4.602 Y1.674 E8.72951
G1 X4.242 Y2.448 E8.77210
G1 X3.757 Y3.141 E8.81430
G1 X3.149 Y3.750 E8.85723
G1 X2.451 Y4.240 E8.89978
G1 X1.676 Y4.601 E8.94244
G1 X0.858 Y4.821 E8.98470
G1 X0.002 Y4.896 E9.02757
G1 X-0.846 Y4.824 E9.07003
G1 X-1.674 Y4.602 E9.11279
G1 X-2.448 Y4.242 E9.15538
G1 X-3.141 Y3.757 E9.19758
G1 X-3.750 Y3.149 E9.24051
G1 X-4.240 Y2.451 E9.28306
G1 X-4.601 Y1.676 E9.32572
G1 X-4.821 Y0.858 E9.36798
G1 X-4.896 Y0.002 E9.41085
G1 X-4.824 Y-0.846 E9.45330
G1 X-4.602 Y-1.674 E9.49607
G1 X-4.242 Y-2.448 E9.53866
G1 X-3.757 Y-3.141 E9.58086
G1 X-3.149 Y-3.750 E9.62379
G1 X-2.451 Y-4.240 E9.66634
G1 X-1.676 Y-4.601 E9.70899
G1 X-0.858 Y-4.821 E9.75125
G1 X-0.002 Y-4.896 E9.79412
G1 X0.846 Y-4.824 E9.83658
G1 X1.674 Y-4.602 E9.87935
G1 X2.448 Y-4.242 E9.92194
G1 X3.141 Y-3.757 E9.96414
G1 X3.750 Y-3.149 E10.00707
G1 X4.240 Y-2.451 E10.04962
G1 X4.601 Y-1.676 E10.09227
G0 F9000 X2.960 Y-0.929
G1 F1800 X2.759 Y-1.418 E10.11865
G1 X2.333 Y-2.100 E10.15877
G1 X-2.331 Y-2.100 E10.39146
G1 X-2.761 Y-1.413 E10.43189
G1 X-2.962 Y-0.920 E10.45845
G1 X-3.075 Y-0.409 E10.48456
G1 X-3.100 Y0.122 E10.51108
G1 X-3.034 Y0.646 E10.53743
G1 X-2.880 Y1.151 E10.56377
G1 X-2.643 Y1.622 E10.59008
G1 X-2.329 Y2.047 E10.61644
G1 X-1.950 Y2.411 E10.64266
G1 X-1.516 Y2.705 E10.66881
G1 X-1.032 Y2.925 E10.69533
G1 X-0.525 Y3.057 E10.72147
G1 X0.000 Y3.101 E10.74775
G1 X0.529 Y3.055 E10.77425
G1 X1.041 Y2.922 E10.80064
G1 X1.521 Y2.702 E10.82698
G1 X1.957 Y2.405 E10.85330
G1 X2.336 Y2.039 E10.87959
G1 X2.648 Y1.614 E10.90589
G1 X2.884 Y1.141 E10.93226
G1 X3.035 Y0.641 E10.95832
G1 X3.100 Y0.116 E10.98471
G1 X3.074 Y-0.414 E11.01119
G1 X2.960 Y-0.929 E11.03750
G0 F9000 X2.577 Y-0.809
;TYPE:WALL-OUTER
G1 F1800 X2.402 Y-1.235 E11.06048
G1 X2.111 Y-1.700 E11.08784
G1 X-2.110 Y-1.700 E11.29843
G1 X-2.404 Y-1.230 E11.32609
G1 X-2.579 Y-0.801 E11.34920
G1 X-2.677 Y-0.356 E11.37194
G1 X-2.699 Y0.106 E11.39501
G1 X-2.641 Y0.562 E11.41795
G1 X-2.507 Y1.002 E11.44089
G1 X-2.301 Y1.412 E11.46379
G1 X-2.028 Y1.782 E11.48673
G1 X-1.697 Y2.099 E11.50959
G1 X-1.320 Y2.355 E11.53233
G1 X-0.898 Y2.546 E11.55544
G1 X-0.457 Y2.661 E11.57817
G1 X0.000 Y2.700 E11.60106
G1 X0.461 Y2.660 E11.62414
G1 X0.906 Y2.544 E11.64708
G1 X1.324 Y2.353 E11.67001
G1 X1.704 Y2.094 E11.69296
G1 X2.033 Y1.775 E11.71582
G1 X2.305 Y1.405 E11.73873
G1 X2.511 Y0.993 E11.76171
G1 X2.642 Y0.558 E11.78437
G1 X2.699 Y0.101 E11.80735
G1 X2.676 Y-0.361 E11.83043
G1 X2.577 Y-0.809 E11.85332
G0 F9000 X2.854 Y-0.922
G0 X4.695 Y-1.711
G0 X4.977 Y-1.817
G1 F1800 X5.218 Y-0.924 E11.89946
G1 X5.298 Y-0.003 E11.94559
G1 X5.220 Y0.915 E11.99155
G1 X4.980 Y1.810 E12.03778
G1 X4.593 Y2.643 E12.08360
G1 X4.060 Y3.404 E12.12996
G1 X3.410 Y4.055 E12.17585
G1 X2.649 Y4.589 E12.22223
G1 X1.817 Y4.977 E12.26804
G1 X0.924 Y5.218 E12.31418
G1 X0.003 Y5.298 E12.36030
G1 X-0.915 Y5.220 E12.40627
G1 X-1.810 Y4.980 E12.45250
G1 X-2.643 Y4.593 E12.49832
G1 X-3.404 Y4.060 E12.54467
G1 X-4.055 Y3.410 E12.59057
G1 X-4.589 Y2.649 E12.63695
G1 X-4.977 Y1.817 E12.68275
G1 X-5.218 Y0.924 E12.72890
G1 X-5.298 Y0.003 E12.77502
G1 X-5.220 Y-0.915 E12.82098
G1 X-4.980 Y-1.810 E12.86721
G1 X-4.593 Y-2.643 E12.91304
G1 X-4.060 Y-3.404 E12.95939
G1 X-3.410 Y-4.055 E13.00529
G1 X-2.649 Y-4.589 E13.05167
G1 X-1.817 Y-4.977 E13.09747
G1 X-0.924 Y-5.218 E13.14361
G1 X-0.003 Y-5.298 E13.18974
G1 X0.915 Y-5.220 E13.23570
G1 X1.810 Y-4.980 E13.28193
G1 X2.643 Y-4.593 E13.32775
G1 X3.404 Y-4.060 E13.37411
G1 X4.055 Y-3.410 E13.42000
G1 X4.589 Y-2.649 E13.46638
G1 X4.977 Y-1.817 E13.51218
G0 F9000 X4.526 Y-1.412
;TYPE:SKIN
G1 F1800 X1.413 Y-4.526 E13.73186
G0 F9000 X0.676 Y-4.697
G1 F1800 X4.696 Y-0.677 E14.01549
G0 F9000 X4.751 Y-0.057
G1 F1800 X0.058 Y-4.749 E14.34657
G0 F9000 X-0.470 Y-4.713
G1 F1800 X2.002 Y-2.240 E14.52102
G0 F9000 X1.436 Y-2.240
G1 F1800 X-0.968 Y-4.645 E14.69067
G0 F9000 X-1.414 Y-4.525
G1 F1800 X0.871 Y-2.240 E14.85189
G0 F9000 X0.305 Y-2.240
G1 F1800 X-1.829 Y-4.374 E15.00246
G0 F9000 X-2.214 Y-4.194
G1 F1800 X-0.260 Y-2.240 E15.14032
G0 F9000 X-0.825 Y-2.240
G1 F1800 X-2.569 Y-3.983 E15.26333
G0 F9000 X-2.901 Y-3.750
G1 F1800 X-1.391 Y-2.240 E15.36987
G0 F9000 X-1.957 Y-2.240
G1 F1800 X-3.208 Y-3.491 E15.45814
G0 F9000 X-3.491 Y-3.208
G1 F1800 X-2.452 Y-2.169 E15.53144
G0 F9000 X-2.669 Y-1.820
G1 F1800 X-3.751 Y-2.903 E15.60782
G0 F9000 X-3.984 Y-2.570
G1 F1800 X-2.886 Y-1.472 E15.68529
G0 F9000 X-3.049 Y-1.069
G1 F1800 X-4.195 Y-2.216 E15.76618
G0 F9000 X-4.375 Y-1.829
G1 F1800 X-3.169 Y-0.623 E15.85127
G0 F9000 X-3.227 Y-0.116
G1 F1800 X-4.526 Y-1.414 E15.94289
G0 F9000 X-4.646 Y-0.969
G1 F1800 X-3.194 Y0.482 E16.04530
G0 F9000 X-2.977 Y1.265
G1 F1800 X-4.714 Y-0.472 E16.16785
G0 F9000 X-4.751 Y0.057
G1 F1800 X-0.058 Y4.749 E16.49894
G0 F9000 X0.470 Y4.713
G1 F1800 X-1.275 Y2.967 E16.62209
G0 F9000 X-0.475 Y3.201
G1 F1800 X0.968 Y4.645 E16.72394
G0 F9000 X1.414 Y4.525
G1 F1800 X0.120 Y3.231 E16.81524
G0 F9000 X0.628 Y3.174
G1 F1800 X1.829 Y4.374 E16.89994
G0 F9000 X2.214 Y4.194
G1 F1800 X1.076 Y3.056 E16.98023
G0 F9000 X1.466 Y2.880
G1 F1800 X2.569 Y3.983 E17.05805
G0 F9000 X2.901 Y3.750
G1 F1800 X1.819 Y2.667 E17.13443
G0 F9000 X2.140 Y2.423
G1 F1800 X3.208 Y3.491 E17.20978
G0 F9000 X3.491 Y3.208
G1 F1800 X2.427 Y2.144 E17.28485
G0 F9000 X2.668 Y1.820
G1 F1800 X3.751 Y2.903 E17.36126
G0 F9000 X3.984 Y2.570
G1 F1800 X2.877 Y1.463 E17.43937
G0 F9000 X3.051 Y1.071
G1 F1800 X4.195 Y2.216 E17.52012
G0 F9000 X4.375 Y1.829
G1 F1800 X3.176 Y0.630 E17.60472
G0 F9000 X3.238 Y0.127
G1 F1800 X4.526 Y1.414 E17.69556
G0 F9000 X4.646 Y0.969
G1 F1800 X3.202 Y-0.474 E17.79740
G0 F9000 X2.967 Y-1.274
G1 F1800 X4.714 Y0.472 E17.92063
G0 F9000 X4.099 Y-2.405
G1 F1800 X2.406 Y-4.098 E18.04008
G0 F9000 X-2.317 Y-2.074
G0 X-4.696 Y0.677
G1 F1800 X-0.676 Y4.697 E18.32371
G0 F9000 X-1.413 Y4.526
G1 F1800 X-4.526 Y1.412 E18.54338
G0 F9000 X-4.099 Y2.405
G1 F1800 X-2.406 Y4.098 E18.66283
;LAYER:1
M106 S63
G0 F9000 X-2.441 Y4.245 Z0.500
;TYPE:WALL-INNER
G1 F2220 X-3.142 Y3.755 E18.69128
G1 X-3.748 Y3.151 E18.71974
G1 X-4.237 Y2.456 E18.74800
G1 X-4.601 Y1.677 E18.77660
G1 X-4.820 Y0.861 E18.80470
G1 X-4.896 Y0.005 E18.83328
G1 X-4.824 Y-0.843 E18.86159
G1 X-4.603 Y-1.671 E18.89009
G1 X-4.245 Y-2.441 E18.91834
G1 X-3.755 Y-3.142 E18.94678
G1 X-3.151 Y-3.748 E18.97524
G1 X-2.456 Y-4.237 E19.00351
G1 X-1.677 Y-4.601 E19.03210
G1 X-0.861 Y-4.820 E19.06020
G1 X-0.005 Y-4.896 E19.08879
G1 X0.843 Y-4.824 E19.11709
G1 X1.671 Y-4.603 E19.14560
G1 X2.441 Y-4.245 E19.17384
G1 X3.142 Y-3.755 E19.20229
G1 X3.748 Y-3.151 E19.23074
G1 X4.237 Y-2.456 E19.25901
G1 X4.601 Y-1.677 E19.28761
G1 X4.820 Y-0.861 E19.31571
G1 X4.896 Y-0.005 E19.34429
G1 X4.824 Y0.843 E19.37260
G1 X4.603 Y1.671 E19.40110
G1 X4.245 Y2.441 E19.42934
G1 X3.755 Y3.142 E19.45779
G1 X3.151 Y3.748 E19.48625
G1 X2.456 Y4.237 E19.51451
G1 X1.677 Y4.601 E19.54311
G1 X0.861 Y4.820 E19.57121
G1 X0.005 Y4.896 E19.59979
G1 X-0.843 Y4.824 E19.62810
G1 X-1.671 Y4.603 E19.65660
G1 X-2.441 Y4.245 E19.68485
G0 F9000 X-1.507 Y2.709
G1 F2220 X-1.026 Y2.926 E19.70240
G1 X-0.525 Y3.057 E19.71962
G1 X0.001 Y3.101 E19.73718
G1 X0.535 Y3.054 E19.75501
G1 X1.046 Y2.920 E19.77258
G1 X1.526 Y2.699 E19.79015
G1 X1.961 Y2.401 E19.80769
G1 X2.339 Y2.034 E19.82521
G1 X2.650 Y1.610 E19.84270
G1 X2.882 Y1.146 E19.85996
G1 X3.035 Y0.640 E19.87754
G1 X3.100 Y0.116 E19.89510
G1 X3.073 Y-0.421 E19.91298
G1 X2.957 Y-0.935 E19.93051
G1 X2.755 Y-1.422 E19.94804
G1 X2.333 Y-2.100 E19.97461
G1 X-2.333 Y-2.100 E20.12980
G1 X-2.765 Y-1.404 E20.15704
G1 X-2.963 Y-0.915 E20.17459
G1 X-3.075 Y-0.410 E20.19180
G1 X-3.100 Y0.117 E20.20934
G1 X-3.033 Y0.652 E20.22728
G1 X-2.877 Y1.156 E20.24482
G1 X-2.639 Y1.627 E20.26238
G1 X-2.326 Y2.050 E20.27988
G1 X-1.945 Y2.415 E20.29743
G1 X-1.507 Y2.709 E20.31497
G0 F9000 X-1.312 Y2.358
;TYPE:WALL-OUTER
G1 F1980 X-0.893 Y2.547 E20.33026
G1 X-0.457 Y2.661 E20.34525
G1 X0.000 Y2.700 E20.36050
G1 X0.466 Y2.659 E20.37606
G1 X0.911 Y2.542 E20.39137
G1 X1.328 Y2.350 E20.40664
G1 X1.707 Y2.090 E20.42192
G1 X2.036 Y1.771 E20.43716
G1 X2.307 Y1.401 E20.45242
G1 X2.509 Y0.997 E20.46744
G1 X2.642 Y0.557 E20.48273
G1 X2.699 Y0.101 E20.49801
G1 X2.675 Y-0.366 E20.51357
G1 X2.574 Y-0.814 E20.52884
G1 X2.398 Y-1.239 E20.54414
G1 X2.111 Y-1.700 E20.56220
G1 X-2.110 Y-1.700 E20.70259
G1 X-2.407 Y-1.222 E20.72131
G1 X-2.580 Y-0.796 E20.73660
G1 X-2.677 Y-0.357 E20.75156
G1 X-2.699 Y0.102 E20.76684
G1 X-2.640 Y0.567 E20.78243
G1 X-2.505 Y1.006 E20.79771
G1 X-2.298 Y1.416 E20.81298
G1 X-2.025 Y1.785 E20.82825
G1 X-1.693 Y2.102 E20.84352
G1 X-1.312 Y2.358 E20.85879
G0 F9000 X-1.479 Y2.607
G0 X-2.494 Y4.331
G0 X-2.640 Y4.594
G1 F1980 X-3.401 Y4.062 E20.88967
G1 X-4.054 Y3.411 E20.92034
G1 X-4.586 Y2.654 E20.95111
G1 X-4.977 Y1.818 E20.98181
G1 X-5.217 Y0.927 E21.01250
G1 X-5.298 Y0.006 E21.04325
G1 X-5.220 Y-0.913 E21.07392
G1 X-4.981 Y-1.808 E21.10473
G1 X-4.594 Y-2.641 E21.13528
G1 X-4.062 Y-3.401 E21.16614
G1 X-3.411 Y-4.054 E21.19681
G1 X-2.654 Y-4.586 E21.22758
G1 X-1.818 Y-4.977 E21.25828
G1 X-0.927 Y-5.217 E21.28897
G1 X-0.006 Y-5.298 E21.31972
G1 X0.913 Y-5.220 E21.35040
G1 X1.808 Y-4.981 E21.38121
G1 X2.640 Y-4.594 E21.41173
G1 X3.401 Y-4.062 E21.44261
G1 X4.054 Y-3.411 E21.47328
G1 X4.586 Y-2.654 E21.50405
G1 X4.975 Y-1.822 E21.53460
G1 X5.217 Y-0.927 E21.56544
G1 X5.298 Y-0.006 E21.59619
G1 X5.220 Y0.910 E21.62676
G1 X4.981 Y1.808 E21.65767
G1 X4.594 Y2.640 E21.68819
G1 X4.062 Y3.401 E21.71907
G1 X3.412 Y4.053 E21.74969
G1 X2.654 Y4.586 E21.78051
G1 X1.818 Y4.977 E21.81121
G1 X0.927 Y5.217 E21.84190
G1 X0.006 Y5.298 E21.87265
G1 X-0.913 Y5.220 E21.90333
G1 X-1.808 Y4.981 E21.93414
G1 X-2.640 Y4.594 E21.96466
G0 F9000 X-2.215 Y4.195
;TYPE:SKIN
G1 F1980 X-1.075 Y3.055 E22.01828
G0 F9000 X-1.465 Y2.879
G1 F1980 X-2.569 Y3.983 E22.07021
G0 F9000 X-2.901 Y3.750
G1 F1980 X-1.818 Y2.667 E22.12115
G0 F9000 X-2.139 Y2.422
G1 F1980 X-3.208 Y3.490 E22.17141
G0 F9000 X-3.491 Y3.208
G1 F1980 X-2.428 Y2.146 E22.22139
G0 F9000 X-2.669 Y1.820
G1 F1980 X-3.750 Y2.901 E22.27223
G0 F9000 X-3.984 Y2.570
G1 F1980 X-2.877 Y1.463 E22.32430
G0 F9000 X-3.050 Y1.070
G1 F1980 X-4.194 Y2.214 E22.37811
G0 F9000 X-4.374 Y1.829
G1 F1980 X-3.176 Y0.630 E22.43449
G0 F9000 X-3.239 Y0.127
G1 F1980 X-4.526 Y1.414 E22.49502
G0 F9000 X-4.644 Y0.968
G1 F1980 X-3.203 Y-0.473 E22.56280
G0 F9000 X-2.966 Y-1.276
G1 F1980 X-4.712 Y0.470 E22.64493
G0 F9000 X-4.748 Y-0.059
G1 F1980 X-0.057 Y-4.750 E22.86558
G0 F9000 X0.472 Y-4.714
G1 F1980 X-2.002 Y-2.240 E22.98195
G0 F9000 X-1.436 Y-2.240
G1 F1980 X0.968 Y-4.645 E23.09505
G0 F9000 X1.415 Y-4.526
G1 F1980 X-0.871 Y-2.240 E23.20258
G0 F9000 X-0.305 Y-2.240
G1 F1980 X1.829 Y-4.375 E23.30298
G0 F9000 X2.215 Y-4.195
G1 F1980 X0.260 Y-2.240 E23.39493
G0 F9000 X0.825 Y-2.240
G1 F1980 X2.569 Y-3.983 E23.47694
G0 F9000 X2.901 Y-3.750
G1 F1980 X1.391 Y-2.240 E23.54797
G0 F9000 X1.957 Y-2.240
G1 F1980 X3.208 Y-3.490 E23.60679
G0 F9000 X3.491 Y-3.208
G1 F1980 X2.453 Y-2.170 E23.65561
G0 F9000 X2.670 Y-1.821
G1 F1980 X3.750 Y-2.901 E23.70641
G0 F9000 X3.984 Y-2.570
G1 F1980 X2.885 Y-1.471 E23.75811
G0 F9000 X3.051 Y-1.071
G1 F1980 X4.194 Y-2.214 E23.81187
G0 F9000 X4.374 Y-1.829
G1 F1980 X3.169 Y-0.623 E23.86857
G0 F9000 X3.229 Y-0.118
G1 F1980 X4.526 Y-1.414 E23.92956
G0 F9000 X4.644 Y-0.968
G1 F1980 X3.194 Y0.482 E23.99776
G0 F9000 X2.979 Y1.263
G1 F1980 X4.712 Y-0.470 E24.07927
G0 F9000 X4.748 Y0.059
G1 F1980 X0.057 Y4.750 E24.29992
G0 F9000 X-0.472 Y4.714
G1 F1980 X1.274 Y2.967 E24.38207
G0 F9000 X0.478 Y3.198
G1 F1980 X-0.968 Y4.645 E24.45011
G0 F9000 X-1.415 Y4.526
G1 F1980 X-0.119 Y3.230 E24.51107
G0 F9000 X-0.627 Y3.173
G1 F1980 X-1.829 Y4.375 E24.56761
G0 F9000 X0.678 Y4.695
G1 F1980 X4.696 Y0.677 E24.75661
G0 F9000 X4.526 Y1.413
G1 F1980 X1.412 Y4.526 E24.90306
G0 F9000 X2.402 Y4.102
G1 F1980 X4.091 Y2.414 E24.98248
G0 F9000 X2.319 Y-2.074
G0 X-0.678 Y-4.695
G1 F1980 X-4.695 Y-0.678 E25.17142
G0 F9000 X-4.526 Y-1.413
